;FLAVOR:Marlin
;TIME:944
;Filament used: 0.503903m
;Layer height: 0.2
;MINX:71
;MINY:84
;MINZ:0.2
;MAXX:149
;MAXY:136
;MAXZ:1.8
;Generated with Cura_SteamEngine 4.10.0
M140 S60
M105
M190 S60
M104 S200
M105
M109 S200
M82 ;absolute extrusion mode
; Ender 3 Custom Start G-code
G92 E0 ; Reset Extruder
G28 ; Home all axes
G1 Z2.0 F3000 ; Move Z Axis up little to prevent scratching of Heat Bed
G1 X0.1 Y20 Z0.3 F5000.0 ; Move to start position
G1 X0.1 Y200.0 Z0.3 F1500.0 E15 ; Draw the first line
G1 X0.4 Y200.0 Z0.3 F5000.0 ; Move to side a little
G1 X0.4 Y20 Z0.3 F1500.0 E30 ; Draw the second line
G92 E0 ; Reset Extruder
G1 Z2.0 F3000 ; Move Z Axis up little to prevent scratching of Heat Bed
G1 X5 Y20 Z0.3 F5000.0 ; Move over to prevent blob squish
G92 E0
G92 E0
G1 F1500 E-6.5
;LAYER_COUNT:9
;LAYER:0
M107
G0 F6000 X75.744 Y86.709 Z0.2
;TYPE:SKIRT
G1 F1500 E0
G1 F1200 X76.606 Y86.085 E0.03539
G1 X76.695 Y86.027 E0.03893
G1 X77.796 Y85.397 E0.08112
G1 X78.069 Y85.261 E0.09126
G1 X78.926 Y84.879 E0.12247
G1 X79.808 Y84.572 E0.15353
G1 X80.011 Y84.511 E0.16058
G1 X81.184 Y84.228 E0.20071
G1 X81.26 Y84.214 E0.20329
G1 X82.189 Y84.084 E0.23448
G1 X82.725 Y84.045 E0.25236
G1 X83.266 Y84.019 E0.27037
G1 X83.636 Y84.007 E0.28269
G1 X84.211 Y84 E0.30181
G1 X136.025 Y84.002 E2.02515
G1 X136.635 Y84.011 E2.04544
G1 X137.525 Y84.06 E2.07509
G1 X137.858 Y84.092 E2.08622
G1 X139.229 Y84.312 E2.1324
G1 X139.291 Y84.326 E2.13451
G1 X140.379 Y84.631 E2.1721
G1 X140.572 Y84.696 E2.17887
G1 X141.447 Y85.033 E2.21006
G1 X142.155 Y85.372 E2.23616
G1 X142.421 Y85.511 E2.24615
G1 X143.233 Y85.98 E2.27734
G1 X143.949 Y86.476 E2.30631
G1 X144.079 Y86.574 E2.31172
G1 X144.803 Y87.17 E2.34291
G1 X145.467 Y87.819 E2.37379
G1 X145.707 Y88.074 E2.38544
G1 X146.32 Y88.784 E2.41664
G1 X146.932 Y89.637 E2.45155
G1 X147.042 Y89.807 E2.45829
G1 X147.518 Y90.616 E2.48951
G1 X147.901 Y91.41 E2.51883
G1 X148.008 Y91.657 E2.52778
G1 X148.343 Y92.533 E2.55898
G1 X148.554 Y93.238 E2.58345
G1 X148.607 Y93.44 E2.5904
G1 X148.806 Y94.357 E2.62161
G1 X148.954 Y95.704 E2.66668
G1 X148.981 Y96.266 E2.68539
G1 X148.993 Y96.636 E2.69771
G1 X149 Y97.211 E2.71683
G1 X148.998 Y123.027 E3.57547
G1 X148.989 Y123.635 E3.5957
G1 X148.941 Y124.506 E3.62471
G1 X148.909 Y124.845 E3.63604
G1 X148.781 Y125.774 E3.66723
G1 X148.641 Y126.431 E3.68957
G1 X148.628 Y126.484 E3.69139
G1 X148.381 Y127.343 E3.72111
G1 X148.316 Y127.538 E3.72795
G1 X147.981 Y128.414 E3.75914
G1 X147.637 Y129.138 E3.7858
G1 X147.498 Y129.405 E3.79582
G1 X147.03 Y130.218 E3.82702
G1 X146.517 Y130.958 E3.85697
G1 X146.418 Y131.089 E3.86243
G1 X145.821 Y131.813 E3.89364
G1 X145.181 Y132.467 E3.92407
G1 X144.926 Y132.707 E3.93572
G1 X144.216 Y133.32 E3.96692
G1 X143.12 Y134.085 E4.01137
G1 X142.894 Y134.223 E4.02018
G1 X142.073 Y134.677 E4.05138
G1 X141.368 Y134.999 E4.07716
G1 X141.182 Y135.076 E4.08386
G1 X140.301 Y135.397 E4.11504
G1 X139.712 Y135.566 E4.13543
G1 X139.494 Y135.622 E4.14291
G1 X138.576 Y135.817 E4.17413
G1 X137.275 Y135.956 E4.21764
G1 X136.724 Y135.982 E4.23599
G1 X136.364 Y135.993 E4.24797
G1 X135.788 Y136 E4.26713
G1 X84.05 Y135.999 E5.98794
G1 X83.632 Y135.993 E6.00185
G1 X83.27 Y135.982 E6.01389
G1 X82.721 Y135.956 E6.03217
G1 X81.787 Y135.871 E6.06336
G1 X80.894 Y135.715 E6.09352
G1 X80.807 Y135.696 E6.09648
G1 X79.9 Y135.457 E6.12767
G1 X79.416 Y135.295 E6.14465
G1 X79.106 Y135.183 E6.15561
G1 X77.925 Y134.676 E6.19836
G1 X77.863 Y134.645 E6.20067
G1 X76.671 Y133.952 E6.24652
G1 X76.448 Y133.803 E6.25544
G1 X75.691 Y133.249 E6.28665
G1 X75.179 Y132.814 E6.30899
G1 X75.137 Y132.776 E6.31087
G1 X74.565 Y132.219 E6.33743
G1 X74.414 Y132.061 E6.3447
G1 X73.795 Y131.356 E6.3759
G1 X73.303 Y130.695 E6.40331
G1 X73.151 Y130.474 E6.41223
G1 X72.653 Y129.679 E6.44343
G1 X72.397 Y129.202 E6.46144
G1 X72.305 Y129.02 E6.46822
G1 X71.918 Y128.166 E6.4994
G1 X71.641 Y127.397 E6.52659
G1 X71.562 Y127.149 E6.53525
G1 X71.316 Y126.244 E6.56644
G1 X71.213 Y125.739 E6.58358
G1 X71.2 Y125.666 E6.58605
G1 X71.075 Y124.736 E6.61726
G1 X71.043 Y124.268 E6.63286
G1 X71.02 Y123.792 E6.64871
G1 X71.008 Y123.409 E6.66146
G1 X71 Y122.742 E6.68364
G1 X71.002 Y96.98 E7.54049
G1 X71.012 Y96.276 E7.56391
G1 X71.065 Y95.339 E7.59512
G1 X71.172 Y94.557 E7.62137
G1 X71.231 Y94.216 E7.63288
G1 X71.43 Y93.299 E7.66409
G1 X71.624 Y92.645 E7.68678
G1 X71.656 Y92.548 E7.69018
G1 X72.048 Y91.531 E7.72643
G1 X72.135 Y91.335 E7.73356
G1 X72.552 Y90.495 E7.76475
G1 X72.914 Y89.885 E7.78835
G1 X73.06 Y89.656 E7.79738
G1 X73.821 Y88.603 E7.84059
G1 X73.839 Y88.581 E7.84154
G1 X74.778 Y87.571 E7.8874
G1 X75.037 Y87.325 E7.89928
G1 X75.744 Y86.709 E7.93047
G0 F6000 X76.006 Y87.011
G1 F1200 X76.825 Y86.42 E7.96407
G1 X76.914 Y86.362 E7.9676
G1 X77.974 Y85.755 E8.00823
G1 X78.247 Y85.619 E8.01837
G1 X79.089 Y85.245 E8.04901
G1 X79.924 Y84.955 E8.07841
G1 X80.127 Y84.894 E8.08546
G1 X81.257 Y84.621 E8.12413
G1 X81.333 Y84.607 E8.1267
G1 X82.244 Y84.48 E8.15729
G1 X82.744 Y84.444 E8.17396
G1 X83.285 Y84.418 E8.19198
G1 X83.641 Y84.407 E8.20383
G1 X84.211 Y84.4 E8.22278
G1 X136.019 Y84.402 E9.94593
G1 X136.629 Y84.411 E9.96622
G1 X137.487 Y84.459 E9.9948
G1 X137.82 Y84.491 E10.00593
G1 X139.141 Y84.702 E10.05042
G1 X139.203 Y84.716 E10.05253
G1 X140.251 Y85.01 E10.08874
G1 X140.444 Y85.075 E10.09551
G1 X141.303 Y85.407 E10.12614
G1 X141.97 Y85.726 E10.15073
G1 X142.236 Y85.865 E10.16071
G1 X143.033 Y86.327 E10.19135
G1 X143.708 Y86.796 E10.21869
G1 X143.838 Y86.894 E10.2241
G1 X144.548 Y87.479 E10.2547
G1 X145.176 Y88.093 E10.28391
G1 X145.416 Y88.348 E10.29556
G1 X146.017 Y89.045 E10.32617
G1 X146.596 Y89.855 E10.35929
G1 X146.706 Y90.025 E10.36602
G1 X147.173 Y90.818 E10.39663
G1 X147.534 Y91.569 E10.42435
G1 X147.641 Y91.816 E10.4333
G1 X147.969 Y92.676 E10.46391
G1 X148.167 Y93.34 E10.48696
G1 X148.22 Y93.542 E10.4939
G1 X148.415 Y94.442 E10.52453
G1 X148.555 Y95.723 E10.56739
G1 X148.582 Y96.285 E10.58611
G1 X148.593 Y96.641 E10.59795
G1 X148.6 Y97.211 E10.61691
G1 X148.598 Y123.021 E11.47536
G1 X148.589 Y123.629 E11.49558
G1 X148.543 Y124.468 E11.52353
G1 X148.511 Y124.807 E11.53485
G1 X148.385 Y125.719 E11.56547
G1 X148.253 Y126.336 E11.58646
G1 X148.24 Y126.389 E11.58828
G1 X148.001 Y127.216 E11.61691
G1 X147.936 Y127.411 E11.62374
G1 X147.607 Y128.271 E11.65437
G1 X147.282 Y128.954 E11.67953
G1 X147.143 Y129.221 E11.68954
G1 X146.683 Y130.018 E11.72014
G1 X146.198 Y130.717 E11.74844
G1 X146.099 Y130.848 E11.7539
G1 X145.512 Y131.558 E11.78454
G1 X144.907 Y132.176 E11.81331
G1 X144.652 Y132.416 E11.82496
G1 X143.955 Y133.017 E11.85557
G1 X142.911 Y133.744 E11.89788
G1 X142.685 Y133.882 E11.90669
G1 X141.879 Y134.327 E11.93731
G1 X141.215 Y134.629 E11.96157
G1 X141.029 Y134.706 E11.96827
G1 X140.164 Y135.021 E11.99888
G1 X139.612 Y135.179 E12.01798
G1 X139.394 Y135.235 E12.02547
G1 X138.494 Y135.425 E12.05606
G1 X137.257 Y135.556 E12.09743
G1 X136.706 Y135.582 E12.11578
G1 X136.358 Y135.593 E12.12736
G1 X135.788 Y135.6 E12.14632
G1 X84.056 Y135.599 E13.86693
G1 X83.638 Y135.593 E13.88084
G1 X83.289 Y135.582 E13.89245
G1 X82.74 Y135.556 E13.91073
G1 X81.823 Y135.473 E13.94136
G1 X80.979 Y135.324 E13.96986
G1 X80.892 Y135.305 E13.97282
G1 X80.002 Y135.07 E14.00344
G1 X79.552 Y134.918 E14.01924
G1 X79.242 Y134.806 E14.0302
G1 X78.104 Y134.318 E14.07138
G1 X78.042 Y134.287 E14.07369
G1 X76.893 Y133.62 E14.11788
G1 X76.67 Y133.471 E14.1268
G1 X75.927 Y132.926 E14.15745
G1 X75.447 Y132.517 E14.17842
G1 X75.405 Y132.479 E14.1803
G1 X74.854 Y131.943 E14.20587
G1 X74.703 Y131.785 E14.21314
G1 X74.096 Y131.092 E14.24378
G1 X73.632 Y130.468 E14.26964
G1 X73.48 Y130.247 E14.27857
G1 X72.992 Y129.466 E14.3092
G1 X72.754 Y129.022 E14.32595
G1 X72.662 Y128.84 E14.33273
G1 X72.283 Y128.001 E14.36335
G1 X72.022 Y127.275 E14.38901
G1 X71.943 Y127.027 E14.39767
G1 X71.702 Y126.139 E14.42827
G1 X71.607 Y125.668 E14.44425
G1 X71.594 Y125.595 E14.44672
G1 X71.442 Y124.249 E14.49177
G1 X71.419 Y123.773 E14.50762
G1 X71.408 Y123.404 E14.5199
G1 X71.4 Y122.742 E14.54192
G1 X71.402 Y96.985 E15.3986
G1 X71.412 Y96.281 E15.42202
G1 X71.465 Y95.362 E15.45264
G1 X71.566 Y94.625 E15.47738
G1 X71.625 Y94.284 E15.48889
G1 X71.821 Y93.384 E15.51953
G1 X72.004 Y92.77 E15.54084
G1 X72.036 Y92.673 E15.54423
G1 X72.414 Y91.694 E15.57914
G1 X72.501 Y91.498 E15.58627
G1 X72.91 Y90.673 E15.6169
G1 X73.251 Y90.1 E15.63907
G1 X73.397 Y89.871 E15.64811
G1 X74.131 Y88.857 E15.68974
G1 X74.149 Y88.835 E15.69069
G1 X75.053 Y87.861 E15.73488
G1 X75.312 Y87.615 E15.74677
G1 X76.006 Y87.011 E15.77737
G0 F6000 X76.269 Y87.313
G1 F1200 X77.043 Y86.755 E15.8091
G1 X77.132 Y86.697 E15.81263
G1 X78.153 Y86.113 E15.85176
G1 X78.426 Y85.977 E15.8619
G1 X79.251 Y85.611 E15.89192
G1 X80.039 Y85.338 E15.91966
G1 X80.242 Y85.277 E15.92671
G1 X81.329 Y85.015 E15.9639
G1 X81.405 Y85.001 E15.96647
G1 X82.3 Y84.877 E15.99652
G1 X82.763 Y84.844 E16.01196
G1 X83.304 Y84.818 E16.02997
G1 X83.647 Y84.807 E16.04138
G1 X84.211 Y84.8 E16.06014
G1 X136.013 Y84.802 E17.78309
G1 X136.623 Y84.811 E17.80338
G1 X137.449 Y84.857 E17.83089
G1 X137.782 Y84.889 E17.84202
G1 X139.053 Y85.093 E17.88483
G1 X139.115 Y85.107 E17.88695
G1 X140.124 Y85.389 E17.92179
G1 X140.317 Y85.454 E17.92857
G1 X141.159 Y85.78 E17.9586
G1 X141.785 Y86.081 E17.9817
G1 X142.051 Y86.22 E17.99168
G1 X142.832 Y86.673 E18.02171
G1 X143.467 Y87.115 E18.04745
G1 X143.597 Y87.213 E18.05286
G1 X144.293 Y87.788 E18.08289
G1 X144.885 Y88.367 E18.11043
G1 X145.125 Y88.622 E18.12208
G1 X145.714 Y89.307 E18.15212
G1 X146.261 Y90.072 E18.1834
G1 X146.371 Y90.242 E18.19014
G1 X146.827 Y91.021 E18.22016
G1 X147.167 Y91.728 E18.24625
G1 X147.274 Y91.975 E18.25521
G1 X147.595 Y92.819 E18.28524
G1 X147.78 Y93.441 E18.30682
G1 X147.833 Y93.643 E18.31377
G1 X148.023 Y94.526 E18.34381
G1 X148.155 Y95.743 E18.38452
G1 X148.182 Y96.305 E18.40324
G1 X148.193 Y96.647 E18.41462
G1 X148.2 Y97.211 E18.43338
G1 X148.198 Y123.015 E19.29162
G1 X148.189 Y123.623 E19.31185
G1 X148.145 Y124.431 E19.33876
G1 X148.113 Y124.77 E19.35009
G1 X147.988 Y125.664 E19.38011
G1 X147.864 Y126.241 E19.39974
G1 X147.851 Y126.294 E19.40156
G1 X147.622 Y127.09 E19.4291
G1 X147.557 Y127.285 E19.43594
G1 X147.233 Y128.128 E19.46598
G1 X146.927 Y128.769 E19.4896
G1 X146.788 Y129.036 E19.49961
G1 X146.336 Y129.818 E19.52966
G1 X145.879 Y130.476 E19.5563
G1 X145.78 Y130.607 E19.56176
G1 X145.204 Y131.302 E19.59179
G1 X144.633 Y131.885 E19.61893
G1 X144.378 Y132.125 E19.63057
G1 X143.693 Y132.714 E19.66062
G1 X142.703 Y133.402 E19.70072
G1 X142.477 Y133.54 E19.70953
G1 X141.686 Y133.976 E19.73957
G1 X141.062 Y134.259 E19.76236
G1 X140.876 Y134.336 E19.76905
G1 X140.028 Y134.645 E19.79907
G1 X139.513 Y134.791 E19.81688
G1 X139.295 Y134.847 E19.82436
G1 X138.411 Y135.033 E19.85441
G1 X137.238 Y135.157 E19.89364
G1 X136.687 Y135.183 E19.91199
G1 X136.352 Y135.193 E19.92313
G1 X135.788 Y135.2 E19.94189
G1 X84.062 Y135.199 E21.66231
G1 X83.644 Y135.193 E21.67621
G1 X83.307 Y135.183 E21.68742
G1 X82.758 Y135.157 E21.7057
G1 X81.859 Y135.074 E21.73573
G1 X81.065 Y134.933 E21.76255
G1 X80.978 Y134.914 E21.76552
G1 X79.688 Y134.542 E21.81017
G1 X79.378 Y134.43 E21.82113
G1 X78.282 Y133.96 E21.8608
G1 X78.22 Y133.929 E21.8631
G1 X77.115 Y133.287 E21.90561
G1 X76.892 Y133.138 E21.91453
G1 X76.164 Y132.604 E21.94456
G1 X75.716 Y132.221 E21.96416
G1 X75.674 Y132.183 E21.96604
G1 X75.143 Y131.666 E21.99069
G1 X74.992 Y131.508 E21.99796
G1 X74.398 Y130.828 E22.02799
G1 X73.962 Y130.241 E22.05231
G1 X73.81 Y130.02 E22.06123
G1 X73.332 Y129.254 E22.09127
G1 X73.111 Y128.842 E22.10682
G1 X73.019 Y128.66 E22.1136
G1 X72.648 Y127.836 E22.14365
G1 X72.403 Y127.154 E22.16776
G1 X72.324 Y126.906 E22.17641
G1 X72.001 Y125.598 E22.22123
G1 X71.988 Y125.525 E22.22369
G1 X71.842 Y124.229 E22.26707
G1 X71.819 Y123.753 E22.28292
G1 X71.808 Y123.399 E22.2947
G1 X71.8 Y122.742 E22.31655
G1 X71.802 Y96.991 E23.17303
G1 X71.812 Y96.287 E23.19645
G1 X71.865 Y95.386 E23.22647
G1 X71.96 Y94.693 E23.24974
G1 X72.019 Y94.352 E23.26125
G1 X72.213 Y93.47 E23.29128
G1 X72.383 Y92.895 E23.31123
G1 X72.415 Y92.798 E23.31462
G1 X72.779 Y91.856 E23.34821
G1 X72.866 Y91.66 E23.35534
G1 X73.269 Y90.851 E23.38541
G1 X73.588 Y90.315 E23.40615
G1 X73.734 Y90.086 E23.41518
G1 X74.441 Y89.11 E23.45527
G1 X74.459 Y89.088 E23.45621
G1 X75.329 Y88.151 E23.49874
G1 X75.588 Y87.905 E23.51062
G1 X76.269 Y87.313 E23.54063
G1 F1500 E17.04063
;MESH:top-cover-Body.stl
G0 F6000 X109.378 Y96.613
G0 X125.647 Y96.653
G0 X125.713 Y101.203
G0 X129.165 Y102.173
G0 X127.73 Y102.173
G0 X127.9 Y104.1
;TYPE:WALL-INNER
G1 F1500 E23.54063
G1 F1200 X135.1 Y104.1 E23.78011
G1 X135.1 Y98.9 E23.95306
G1 X127.9 Y98.9 E24.19253
G1 X127.9 Y104.1 E24.36548
G0 F6000 X128.3 Y103.7
;TYPE:WALL-OUTER
G1 F1200 X134.7 Y103.7 E24.57835
G1 X134.7 Y99.3 E24.72469
G1 X128.3 Y99.3 E24.93756
G1 X128.3 Y103.7 E25.0839
G1 F1500 E18.5839
G0 F6000 X128.1 Y103.7
G0 X127.9 Y104.29
G0 X127.9 Y109.8
;TYPE:WALL-INNER
G1 F1500 E25.0839
G1 F1200 X135.1 Y109.8 E25.32338
G1 X135.1 Y104.6 E25.49633
G1 X127.9 Y104.6 E25.7358
G1 X127.9 Y109.8 E25.90876
G0 F6000 X128.3 Y109.4
;TYPE:WALL-OUTER
G1 F1200 X134.7 Y109.4 E26.12162
G1 X134.7 Y105 E26.26796
G1 X128.3 Y105 E26.48083
G1 X128.3 Y109.4 E26.62717
G0 F6000 X128.1 Y109.4
G0 X127.9 Y115.4
;TYPE:WALL-INNER
G1 F1200 X135.1 Y115.4 E26.86665
G1 X135.1 Y110.2 E27.0396
G1 X127.9 Y110.2 E27.27907
G1 X127.9 Y115.4 E27.45203
G0 F6000 X128.3 Y115
;TYPE:WALL-OUTER
G1 F1200 X134.7 Y115 E27.66489
G1 X134.7 Y110.6 E27.81123
G1 X128.3 Y110.6 E28.0241
G1 X128.3 Y115 E28.17044
G1 F1500 E21.67044
G0 F6000 X128.1 Y115
G0 X127.9 Y115.59
G0 X127.9 Y121.1
;TYPE:WALL-INNER
G1 F1500 E28.17044
G1 F1200 X135.1 Y121.1 E28.40992
G1 X135.1 Y115.9 E28.58287
G1 X127.9 Y115.9 E28.82234
G1 X127.9 Y121.1 E28.9953
G0 F6000 X128.3 Y120.7
;TYPE:WALL-OUTER
G1 F1200 X134.7 Y120.7 E29.20816
G1 X134.7 Y116.3 E29.35451
G1 X128.3 Y116.3 E29.56737
G1 X128.3 Y120.7 E29.71371
G1 F1500 E23.21371
G0 F6000 X128.1 Y120.7
G0 X127.704 Y121.296
G0 X126.6 Y121.296
G0 X126.636 Y121.775
G0 X126.628 Y123.828
G0 X94.4 Y124.1
;TYPE:WALL-INNER
G1 F1500 E29.71371
G1 F1200 X126.9 Y124.1 E30.79467
G1 X126.9 Y95.601 E31.74255
G1 X136.531 Y95.601 E32.06288
G1 X136.921 Y95.706 E32.07631
G1 X137.224 Y95.97 E32.08968
G1 X137.38 Y96.321 E32.10245
G1 X137.4 Y96.52 E32.10911
G1 X137.399 Y123.533 E33.00756
G1 X137.294 Y123.921 E33.02093
G1 X137.037 Y124.219 E33.03402
G1 X136.722 Y124.37 E33.04564
G1 X136.473 Y124.4 E33.05398
G1 X126.9 Y124.4 E33.37238
G1 X94.4 Y124.4 E34.18513
G1 X83.523 Y124.4 E34.5469
G1 X83.288 Y124.372 E34.55477
G1 X82.93 Y124.195 E34.56805
G1 X82.777 Y124.031 E34.57551
G1 X82.668 Y123.836 E34.58294
G1 X82.6 Y123.486 E34.5948
G1 X82.601 Y96.467 E35.49346
G1 X82.71 Y96.071 E35.50712
G1 X82.969 Y95.777 E35.52015
G1 X83.159 Y95.671 E35.52738
G1 X83.514 Y95.6 E35.53943
G1 X94.201 Y95.6 E35.89488
G1 X94.4 Y95.6 E35.9015
G1 X94.4 Y95.799 E35.90578
G1 X94.399 Y107.165 E36.28381
G1 X94.351 Y107.351 E36.2902
G1 X94.168 Y107.531 E36.29874
G1 X94.005 Y107.569 E36.30431
G1 X93.89 Y107.553 E36.30817
G1 X93.712 Y107.453 E36.31496
G1 X90.893 Y104.482 E36.45118
G1 X90.528 Y104.224 E36.46604
G1 X90.156 Y104.09 E36.47919
G1 X89.759 Y104.051 E36.49246
G1 X89.305 Y104.127 E36.50777
G1 X88.943 Y104.299 E36.5211
G1 X88.702 Y104.488 E36.53129
G1 X88.41 Y104.792 E36.54531
G1 X84.492 Y108.925 E36.73472
G1 X84.246 Y109.277 E36.74901
G1 X84.111 Y109.656 E36.76239
G1 X84.077 Y110.109 E36.7775
G1 X84.153 Y110.497 E36.79065
G1 X84.32 Y110.852 E36.8037
G1 X84.499 Y111.083 E36.81342
G1 X88.708 Y115.519 E37.0168
G1 X89.073 Y115.776 E37.03165
G1 X89.444 Y115.91 E37.04477
G1 X89.845 Y115.949 E37.05817
G1 X90.296 Y115.873 E37.07338
G1 X90.657 Y115.701 E37.08668
G1 X90.902 Y115.508 E37.09706
G1 X94.056 Y112.182 E37.24951
G1 X94.4 Y111.82 E37.26612
G1 X94.4 Y112.319 E37.27501
G1 X94.4 Y112.32 E37.27504
G1 X94.4 Y124.1 E37.66685
G0 F6000 X94.8 Y123.7
;TYPE:WALL-OUTER
G1 F1200 X126.5 Y123.7 E38.72119
G1 X126.5 Y95.8 E39.64915
G1 X94.8 Y95.8 E40.7035
G1 X94.799 Y107.217 E41.08323
G1 X94.721 Y107.522 E41.0937
