;FLAVOR:Marlin
;TIME:4838
;Filament used: 2.99175m
;Layer height: 0.2
;MINX:71
;MINY:84
;MINZ:0.2
;MAXX:149
;MAXY:136
;MAXZ:19.2
;Generated with Cura_SteamEngine 4.10.0
M140 S60
M105
M190 S60
M104 S200
M105
M109 S200
M82 ;absolute extrusion mode
; Ender 3 Custom Start G-code
G92 E0 ; Reset Extruder
G28 ; Home all axes
G1 Z2.0 F3000 ; Move Z Axis up little to prevent scratching of Heat Bed
G1 X0.1 Y20 Z0.3 F5000.0 ; Move to start position
G1 X0.1 Y200.0 Z0.3 F1500.0 E15 ; Draw the first line
G1 X0.4 Y200.0 Z0.3 F5000.0 ; Move to side a little
G1 X0.4 Y20 Z0.3 F1500.0 E30 ; Draw the second line
G92 E0 ; Reset Extruder
G1 Z2.0 F3000 ; Move Z Axis up little to prevent scratching of Heat Bed
G1 X5 Y20 Z0.3 F5000.0 ; Move over to prevent blob squish
G92 E0
G92 E0
G1 F1500 E-6.5
;LAYER_COUNT:96
;LAYER:0
M107
G0 F6000 X75.744 Y86.708 Z0.2
;TYPE:SKIRT
G1 F1500 E0
G1 F1200 X76.89 Y85.906 E0.04652
G1 X77.11 Y85.772 E0.05509
G1 X77.931 Y85.319 E0.08628
G1 X78.675 Y84.983 E0.11343
G1 X78.871 Y84.903 E0.12047
G1 X80.157 Y84.468 E0.16562
G1 X80.353 Y84.415 E0.17238
G1 X81.268 Y84.209 E0.20357
G1 X82.197 Y84.082 E0.23476
G1 X82.684 Y84.047 E0.251
G1 X83.254 Y84.019 E0.26998
G1 X83.636 Y84.007 E0.28269
G1 X84.211 Y84 E0.30182
G1 X136.027 Y84.002 E2.02522
G1 X136.578 Y84.01 E2.04355
G1 X137.232 Y84.039 E2.06533
G1 X137.569 Y84.064 E2.07656
G1 X138.5 Y84.173 E2.10774
G1 X139.799 Y84.464 E2.15202
G1 X140.115 Y84.555 E2.16295
G1 X141.004 Y84.852 E2.19413
G1 X142.218 Y85.403 E2.23847
G1 X142.473 Y85.538 E2.24807
G1 X143.282 Y86.012 E2.27925
G1 X143.825 Y86.385 E2.30116
G1 X143.952 Y86.478 E2.3064
G1 X144.684 Y87.064 E2.33759
G1 X145.474 Y87.826 E2.37409
G1 X145.718 Y88.086 E2.38595
G1 X146.33 Y88.796 E2.41713
G1 X147.061 Y89.841 E2.45955
G1 X147.196 Y90.06 E2.4681
G1 X147.846 Y91.28 E2.51408
G1 X147.891 Y91.379 E2.5177
G1 X148.242 Y92.249 E2.5489
G1 X148.409 Y92.757 E2.56669
G1 X148.497 Y93.049 E2.57683
G1 X148.729 Y93.958 E2.60803
G1 X148.853 Y94.654 E2.63155
G1 X148.87 Y94.772 E2.63551
G1 X148.979 Y96.078 E2.6791
G1 X148.997 Y96.831 E2.70415
G1 X149 Y97.094 E2.7129
G1 X148.998 Y123.007 E3.57477
G1 X148.99 Y123.583 E3.59393
G1 X148.96 Y124.253 E3.61624
G1 X148.936 Y124.573 E3.62691
G1 X148.826 Y125.504 E3.65809
G1 X148.541 Y126.781 E3.70161
G1 X148.449 Y127.102 E3.71271
G1 X148.153 Y127.991 E3.74388
G1 X147.618 Y129.177 E3.78715
G1 X147.487 Y129.427 E3.79654
G1 X147.017 Y130.238 E3.82772
G1 X146.608 Y130.835 E3.85178
G1 X146.511 Y130.967 E3.85723
G1 X145.924 Y131.698 E3.88841
G1 X145.174 Y132.474 E3.92431
G1 X144.914 Y132.718 E3.93617
G1 X144.204 Y133.33 E3.96735
G1 X143.159 Y134.061 E4.00976
G1 X142.94 Y134.196 E4.01832
G1 X142.122 Y134.653 E4.04948
G1 X141.698 Y134.856 E4.06512
G1 X141.594 Y134.903 E4.06891
G1 X140.724 Y135.252 E4.10009
G1 X140.211 Y135.419 E4.11804
G1 X139.923 Y135.505 E4.12803
G1 X139.014 Y135.735 E4.15922
G1 X138.332 Y135.854 E4.18225
G1 X138.22 Y135.87 E4.18601
G1 X136.92 Y135.978 E4.2294
G1 X136.103 Y135.997 E4.25658
G1 X135.847 Y136 E4.26509
G1 X84.054 Y135.999 E5.98773
G1 X83.637 Y135.993 E6.0016
G1 X83.273 Y135.982 E6.01372
G1 X82.831 Y135.961 E6.02843
G1 X81.46 Y135.809 E6.07431
G1 X81.168 Y135.758 E6.08417
G1 X80.252 Y135.557 E6.11536
G1 X79.072 Y135.173 E6.15664
G1 X78.869 Y135.094 E6.16388
G1 X78.01 Y134.717 E6.19508
G1 X76.977 Y134.139 E6.23445
G1 X76.664 Y133.941 E6.24677
G1 X75.894 Y133.406 E6.27796
G1 X75.172 Y132.808 E6.30914
G1 X74.522 Y132.17 E6.33943
G1 X74.28 Y131.912 E6.3512
G1 X73.668 Y131.202 E6.38237
G1 X72.918 Y130.125 E6.42602
G1 X72.778 Y129.896 E6.43495
G1 X72.323 Y129.075 E6.46617
G1 X71.968 Y128.288 E6.49489
G1 X71.889 Y128.093 E6.50188
G1 X71.574 Y127.21 E6.53307
G1 X71.361 Y126.416 E6.56041
G1 X71.299 Y126.145 E6.56965
G1 X71.129 Y125.223 E6.60084
G1 X71.058 Y124.581 E6.62232
G1 X71.049 Y124.47 E6.62602
G1 X71.016 Y123.849 E6.64671
G1 X71.003 Y123.316 E6.66444
G1 X71 Y123.048 E6.67335
G1 X71.001 Y97.028 E7.53878
G1 X71.007 Y96.629 E7.55206
G1 X71.018 Y96.271 E7.56397
G1 X71.039 Y95.83 E7.57865
G1 X71.187 Y94.484 E7.62369
G1 X71.237 Y94.194 E7.63348
G1 X71.436 Y93.277 E7.66469
G1 X71.826 Y92.074 E7.70675
G1 X71.905 Y91.871 E7.714
G1 X72.282 Y91.012 E7.7452
G1 X72.851 Y89.993 E7.78401
G1 X73.049 Y89.679 E7.79636
G1 X73.583 Y88.907 E7.82758
G1 X74.18 Y88.184 E7.85877
G1 X74.779 Y87.569 E7.88732
G1 X75.037 Y87.324 E7.89915
G1 X75.744 Y86.708 E7.93034
G0 F6000 X76.007 Y87.01
G1 F1200 X77.098 Y86.248 E7.9746
G1 X77.318 Y86.114 E7.98317
G1 X78.124 Y85.67 E8.01378
G1 X78.826 Y85.353 E8.0394
G1 X79.022 Y85.273 E8.04644
G1 X80.261 Y84.855 E8.08993
G1 X80.457 Y84.802 E8.09668
G1 X81.355 Y84.6 E8.1273
G1 X82.704 Y84.447 E8.17245
G1 X83.274 Y84.419 E8.19143
G1 X83.641 Y84.407 E8.20365
G1 X84.211 Y84.4 E8.22261
G1 X136.021 Y84.402 E9.94581
G1 X136.572 Y84.41 E9.96414
G1 X137.202 Y84.438 E9.98512
G1 X137.539 Y84.463 E9.99636
G1 X138.454 Y84.571 E10.027
G1 X139.688 Y84.848 E10.06906
G1 X140.004 Y84.939 E10.08
G1 X140.877 Y85.232 E10.11063
G1 X142.031 Y85.757 E10.1528
G1 X142.286 Y85.892 E10.16239
G1 X143.08 Y86.358 E10.19301
G1 X143.589 Y86.708 E10.21356
G1 X143.716 Y86.801 E10.2188
G1 X144.434 Y87.377 E10.24941
G1 X145.182 Y88.099 E10.28399
G1 X145.426 Y88.359 E10.29585
G1 X146.027 Y89.057 E10.32648
G1 X146.72 Y90.051 E10.36679
G1 X146.855 Y90.27 E10.37534
G1 X147.482 Y91.446 E10.41967
G1 X147.527 Y91.545 E10.42329
G1 X147.871 Y92.399 E10.45391
G1 X148.026 Y92.872 E10.47046
G1 X148.114 Y93.164 E10.48061
G1 X148.341 Y94.057 E10.51125
G1 X148.457 Y94.711 E10.53334
G1 X148.474 Y94.829 E10.53731
G1 X148.579 Y96.088 E10.57933
G1 X148.597 Y96.841 E10.60438
G1 X148.6 Y97.094 E10.6128
G1 X148.598 Y123.001 E11.47447
G1 X148.59 Y123.577 E11.49363
G1 X148.561 Y124.223 E11.51513
G1 X148.537 Y124.543 E11.52581
G1 X148.429 Y125.457 E11.55642
G1 X148.157 Y126.67 E11.59776
G1 X148.065 Y126.991 E11.60887
G1 X147.773 Y127.865 E11.63952
G1 X147.264 Y128.991 E11.68062
G1 X147.133 Y129.241 E11.69001
G1 X146.671 Y130.037 E11.72062
G1 X146.286 Y130.598 E11.74325
G1 X146.189 Y130.73 E11.7487
G1 X145.612 Y131.447 E11.77931
G1 X144.901 Y132.182 E11.81332
G1 X144.641 Y132.426 E11.82518
G1 X143.943 Y133.027 E11.85581
G1 X142.949 Y133.72 E11.89612
G1 X142.73 Y133.855 E11.90467
G1 X141.533 Y134.491 E11.94976
G1 X141.429 Y134.538 E11.95355
G1 X140.575 Y134.881 E11.98416
G1 X140.097 Y135.036 E12.00088
G1 X139.809 Y135.122 E12.01087
G1 X138.916 Y135.347 E12.0415
G1 X138.275 Y135.458 E12.06314
G1 X138.163 Y135.474 E12.0669
G1 X136.91 Y135.578 E12.10872
G1 X136.093 Y135.597 E12.1359
G1 X135.847 Y135.6 E12.14408
G1 X84.059 Y135.599 E13.86656
G1 X83.642 Y135.593 E13.88043
G1 X83.292 Y135.582 E13.89208
G1 X82.85 Y135.561 E13.90679
G1 X81.529 Y135.415 E13.951
G1 X81.237 Y135.364 E13.96086
G1 X80.338 Y135.166 E13.99147
G1 X79.217 Y134.8 E14.0307
G1 X79.014 Y134.721 E14.03794
G1 X78.171 Y134.351 E14.06856
G1 X77.191 Y133.801 E14.10594
G1 X76.878 Y133.603 E14.11826
G1 X76.122 Y133.078 E14.14887
G1 X75.415 Y132.488 E14.1795
G1 X74.814 Y131.897 E14.20753
G1 X74.572 Y131.639 E14.2193
G1 X73.972 Y130.941 E14.24991
G1 X73.259 Y129.916 E14.29144
G1 X73.119 Y129.687 E14.30037
G1 X72.674 Y128.881 E14.33099
G1 X72.339 Y128.138 E14.3581
G1 X72.26 Y127.943 E14.3651
G1 X71.951 Y127.076 E14.39571
G1 X71.751 Y126.327 E14.42149
G1 X71.689 Y126.056 E14.43074
G1 X71.523 Y125.15 E14.46138
G1 X71.457 Y124.549 E14.48148
G1 X71.448 Y124.438 E14.48519
G1 X71.416 Y123.839 E14.50514
G1 X71.403 Y123.306 E14.52287
G1 X71.4 Y123.048 E14.53145
G1 X71.401 Y97.034 E15.39668
G1 X71.407 Y96.635 E15.40996
G1 X71.418 Y96.29 E15.42144
G1 X71.439 Y95.849 E15.43612
G1 X71.581 Y94.552 E15.47952
G1 X71.631 Y94.262 E15.4893
G1 X71.827 Y93.362 E15.51994
G1 X72.199 Y92.219 E15.55992
G1 X72.278 Y92.016 E15.56716
G1 X72.648 Y91.173 E15.59778
G1 X73.19 Y90.206 E15.63465
G1 X73.388 Y89.892 E15.647
G1 X73.912 Y89.135 E15.67762
G1 X74.5 Y88.427 E15.70823
G1 X75.055 Y87.86 E15.73462
G1 X75.313 Y87.615 E15.74646
G1 X76.007 Y87.01 E15.77708
G0 F6000 X76.27 Y87.312
G1 F1200 X77.306 Y86.59 E15.81908
G1 X77.526 Y86.456 E15.82765
G1 X78.317 Y86.021 E15.85767
G1 X78.977 Y85.723 E15.88176
G1 X79.173 Y85.643 E15.8888
G1 X80.365 Y85.241 E15.93064
G1 X80.561 Y85.188 E15.93739
G1 X81.443 Y84.991 E15.96745
G1 X82.724 Y84.846 E16.01033
G1 X83.294 Y84.818 E16.02931
G1 X83.647 Y84.807 E16.04105
G1 X84.211 Y84.8 E16.05981
G1 X136.015 Y84.802 E17.78282
G1 X136.566 Y84.81 E17.80115
G1 X137.173 Y84.837 E17.82136
G1 X137.51 Y84.862 E17.8326
G1 X138.406 Y84.969 E17.86261
G1 X139.578 Y85.232 E17.90256
G1 X139.894 Y85.323 E17.9135
G1 X140.75 Y85.611 E17.94354
G1 X141.843 Y86.11 E17.9835
G1 X142.098 Y86.245 E17.9931
G1 X142.877 Y86.703 E18.02315
G1 X143.352 Y87.031 E18.04235
G1 X143.479 Y87.124 E18.04759
G1 X144.184 Y87.689 E18.07764
G1 X144.891 Y88.373 E18.11036
G1 X145.135 Y88.633 E18.12222
G1 X145.723 Y89.318 E18.15224
G1 X146.38 Y90.261 E18.19047
G1 X146.515 Y90.48 E18.19902
G1 X147.118 Y91.611 E18.24165
G1 X147.163 Y91.71 E18.24527
G1 X147.5 Y92.548 E18.27531
G1 X147.643 Y92.988 E18.2907
G1 X147.731 Y93.28 E18.30084
G1 X147.953 Y94.155 E18.33087
G1 X148.061 Y94.769 E18.3516
G1 X148.078 Y94.887 E18.35557
G1 X148.179 Y96.097 E18.39595
G1 X148.197 Y96.85 E18.42101
G1 X148.2 Y97.094 E18.42912
G1 X148.198 Y122.996 E19.29063
G1 X148.19 Y123.572 E19.30979
G1 X148.162 Y124.193 E19.33046
G1 X148.138 Y124.513 E19.34113
G1 X148.031 Y125.41 E19.37118
G1 X147.772 Y126.56 E19.41039
G1 X147.68 Y126.881 E19.42149
G1 X147.393 Y127.738 E19.45155
G1 X146.91 Y128.805 E19.49051
G1 X146.779 Y129.055 E19.4999
G1 X146.325 Y129.836 E19.52994
G1 X145.963 Y130.361 E19.55115
G1 X145.866 Y130.493 E19.5566
G1 X145.3 Y131.196 E19.58662
G1 X144.627 Y131.891 E19.6188
G1 X144.367 Y132.135 E19.63066
G1 X143.682 Y132.723 E19.66068
G1 X142.739 Y133.38 E19.69891
G1 X142.52 Y133.515 E19.70746
G1 X141.369 Y134.127 E19.75082
G1 X141.265 Y134.174 E19.75462
G1 X140.426 Y134.509 E19.78467
G1 X139.982 Y134.653 E19.80019
G1 X139.694 Y134.739 E19.81019
G1 X138.819 Y134.958 E19.84019
G1 X138.218 Y135.062 E19.86047
G1 X138.106 Y135.078 E19.86424
G1 X136.901 Y135.178 E19.90445
G1 X136.084 Y135.197 E19.93163
G1 X135.847 Y135.2 E19.93952
G1 X84.065 Y135.199 E21.66179
G1 X83.648 Y135.193 E21.67566
G1 X83.311 Y135.183 E21.68688
G1 X82.869 Y135.162 E21.7016
G1 X81.598 Y135.021 E21.74413
G1 X81.306 Y134.97 E21.75399
G1 X80.424 Y134.775 E21.78403
G1 X79.362 Y134.428 E21.82119
G1 X79.159 Y134.349 E21.82844
G1 X78.332 Y133.984 E21.8585
G1 X77.405 Y133.463 E21.89387
G1 X77.092 Y133.265 E21.90619
G1 X76.351 Y132.749 E21.93622
G1 X75.658 Y132.169 E21.96628
G1 X75.106 Y131.623 E21.9921
G1 X74.864 Y131.365 E22.00387
G1 X74.275 Y130.68 E22.03391
G1 X73.6 Y129.707 E22.0733
G1 X73.46 Y129.478 E22.08223
G1 X73.024 Y128.688 E22.11224
G1 X72.709 Y127.988 E22.13777
G1 X72.63 Y127.793 E22.14477
G1 X72.329 Y126.942 E22.17479
G1 X72.141 Y126.238 E22.19903
G1 X72.079 Y125.967 E22.20827
G1 X71.917 Y125.078 E22.23833
G1 X71.855 Y124.516 E22.25713
G1 X71.846 Y124.405 E22.26084
G1 X71.816 Y123.83 E22.27999
G1 X71.803 Y123.297 E22.29772
G1 X71.8 Y123.048 E22.306
G1 X71.801 Y97.04 E23.17103
G1 X71.807 Y96.641 E23.18431
G1 X71.818 Y96.309 E23.19535
G1 X71.839 Y95.868 E23.21004
G1 X71.975 Y94.62 E23.25179
G1 X72.025 Y94.33 E23.26158
G1 X72.218 Y93.448 E23.29161
G1 X72.571 Y92.364 E23.32953
G1 X72.65 Y92.161 E23.33677
G1 X73.015 Y91.334 E23.36684
G1 X73.528 Y90.419 E23.40173
G1 X73.726 Y90.105 E23.41408
G1 X74.241 Y89.364 E23.44409
G1 X74.82 Y88.67 E23.47415
G1 X75.33 Y88.15 E23.49837
G1 X75.588 Y87.905 E23.51021
G1 X76.27 Y87.312 E23.54027
G1 F1500 E17.04027
;MESH:bottom-box-Body.stl
G0 F6000 X119.698 Y107.194
G0 X118.304 Y107.644
G0 X119.668 Y109.328
G0 X120.348 Y109.79
G0 X121.463 Y110.36
;TYPE:WALL-INNER
G1 F1500 E23.54027
G1 F1200 X121.815 Y110.395 E23.55203
G1 X121.992 Y110.4 E23.55792
G1 X125.013 Y110.4 E23.6584
G1 X125.359 Y110.382 E23.66992
G1 X125.712 Y110.33 E23.68179
G1 X126.062 Y110.241 E23.6938
G1 X126.398 Y110.117 E23.70572
G1 X126.723 Y109.963 E23.71768
G1 X127.038 Y109.768 E23.73
G1 X127.314 Y109.559 E23.74151
G1 X127.585 Y109.306 E23.75385
G1 X127.815 Y109.044 E23.76544
G1 X128.029 Y108.746 E23.77764
G1 X128.204 Y108.444 E23.78925
G1 X128.352 Y108.115 E23.80125
G1 X128.469 Y107.766 E23.81349
G1 X128.546 Y107.425 E23.82512
G1 X128.591 Y107.057 E23.83745
G1 X128.599 Y106.699 E23.84936
G1 X128.572 Y106.351 E23.86097
G1 X128.511 Y105.999 E23.87285
G1 X128.414 Y105.654 E23.88477
G1 X128.282 Y105.318 E23.89678
G1 X128.118 Y104.999 E23.90871
G1 X127.923 Y104.698 E23.92064
G1 X127.693 Y104.411 E23.93287
G1 X127.449 Y104.16 E23.94451
G1 X127.174 Y103.931 E23.95642
G1 X126.878 Y103.728 E23.96835
G1 X126.562 Y103.555 E23.98034
G1 X126.231 Y103.416 E23.99228
G1 X125.887 Y103.311 E24.00424
G1 X125.525 Y103.239 E24.01652
G1 X125.185 Y103.205 E24.02788
G1 X125.008 Y103.2 E24.03377
G1 X121.987 Y103.2 E24.13425
G1 X121.641 Y103.218 E24.14577
G1 X121.288 Y103.27 E24.15764
G1 X120.938 Y103.359 E24.16965
G1 X120.602 Y103.483 E24.18156
G1 X120.278 Y103.637 E24.1935
G1 X119.971 Y103.826 E24.20549
G1 X119.678 Y104.048 E24.21771
G1 X119.422 Y104.286 E24.22934
G1 X119.179 Y104.564 E24.24162
G1 X118.971 Y104.854 E24.25349
G1 X118.796 Y105.156 E24.2651
G1 X118.648 Y105.485 E24.2771
G1 X118.533 Y105.825 E24.28903
G1 X118.453 Y106.186 E24.30133
G1 X118.409 Y106.542 E24.31326
G1 X118.401 Y106.891 E24.32487
G1 X118.429 Y107.259 E24.33715
G1 X118.49 Y107.601 E24.3487
G1 X118.586 Y107.947 E24.36065
G1 X118.718 Y108.281 E24.37259
G1 X118.882 Y108.6 E24.38452
G1 X119.077 Y108.902 E24.39648
G1 X119.307 Y109.19 E24.40874
G1 X119.559 Y109.446 E24.42068
G1 X119.826 Y109.669 E24.43226
G1 X120.122 Y109.872 E24.44419
G1 X120.438 Y110.045 E24.45618
G1 X120.769 Y110.184 E24.46812
G1 X121.112 Y110.289 E24.48005
G1 X121.463 Y110.36 E24.49196
G0 F6000 X121.523 Y109.964
;TYPE:WALL-OUTER
G1 F1200 X121.84 Y109.996 E24.50255
G1 X121.997 Y110 E24.50778
G1 X125.003 Y110 E24.60776
G1 X125.319 Y109.984 E24.61828
G1 X125.633 Y109.937 E24.62884
G1 X125.943 Y109.858 E24.63948
G1 X126.243 Y109.748 E24.65011
G1 X126.531 Y109.611 E24.66072
G1 X126.811 Y109.438 E24.67166
G1 X127.056 Y109.252 E24.68189
G1 X127.298 Y109.027 E24.69289
G1 X127.501 Y108.795 E24.70314
G1 X127.693 Y108.528 E24.71408
G1 X127.848 Y108.261 E24.72435
G1 X127.979 Y107.969 E24.73499
G1 X128.083 Y107.658 E24.7459
G1 X128.151 Y107.356 E24.75619
G1 X128.192 Y107.028 E24.76719
G1 X128.199 Y106.71 E24.77777
G1 X128.175 Y106.401 E24.78807
G1 X128.12 Y106.088 E24.79864
G1 X128.034 Y105.781 E24.80925
G1 X127.917 Y105.483 E24.8199
G1 X127.771 Y105.2 E24.83049
G1 X127.598 Y104.932 E24.8411
G1 X127.393 Y104.676 E24.85201
G1 X127.177 Y104.454 E24.86231
G1 X126.932 Y104.25 E24.87291
G1 X126.668 Y104.069 E24.88356
G1 X126.388 Y103.916 E24.89417
G1 X126.095 Y103.793 E24.90474
G1 X125.789 Y103.699 E24.91539
G1 X125.466 Y103.635 E24.92634
G1 X125.16 Y103.604 E24.93657
G1 X125.003 Y103.6 E24.94179
G1 X121.997 Y103.6 E25.04177
G1 X121.681 Y103.616 E25.05229
G1 X121.367 Y103.663 E25.06285
G1 X121.057 Y103.742 E25.07349
G1 X120.757 Y103.852 E25.08412
G1 X120.469 Y103.989 E25.09473
G1 X120.197 Y104.156 E25.10535
G1 X119.936 Y104.355 E25.11626
G1 X119.709 Y104.565 E25.12655
G1 X119.493 Y104.813 E25.13749
G1 X119.307 Y105.072 E25.14809
G1 X119.152 Y105.339 E25.15836
G1 X119.021 Y105.631 E25.169
G1 X118.919 Y105.933 E25.17961
G1 X118.848 Y106.254 E25.19054
G1 X118.808 Y106.572 E25.2012
G1 X118.801 Y106.88 E25.21145
G1 X118.826 Y107.209 E25.22242
G1 X118.88 Y107.512 E25.23266
G1 X118.966 Y107.819 E25.24326
G1 X119.083 Y108.116 E25.25388
G1 X119.229 Y108.4 E25.2645
G1 X119.402 Y108.668 E25.27511
G1 X119.607 Y108.924 E25.28602
G1 X119.831 Y109.152 E25.29665
G1 X120.068 Y109.35 E25.30692
G1 X120.332 Y109.531 E25.31757
G1 X120.612 Y109.684 E25.32818
G1 X120.905 Y109.807 E25.33875
G1 X121.211 Y109.901 E25.3494
G1 X121.523 Y109.964 E25.35998
G0 F6000 X121.458 Y110.399
G1 F1500 E18.85998
G0 F6000 X120.703 Y110.364
G0 X121.202 Y108.995
G0 X120.703 Y125.665
G0 X120.703 Y124.19
G0 X83.285 Y124.372
;TYPE:WALL-INNER
G1 F1500 E25.35998
G1 F1200 X82.933 Y124.196 E25.37307
